icons/hicolor/16x16/actions/icon-transform-symbolic.svg

<?xml version="1.0" encoding="UTF-8" standalone="no"?>
<svg
   xmlns:dc="http://purl.org/dc/elements/1.1/"
   xmlns:cc="http://creativecommons.org/ns#"
   xmlns:rdf="http://www.w3.org/1999/02/22-rdf-syntax-ns#"
   xmlns:svg="http://www.w3.org/2000/svg"
   xmlns="http://www.w3.org/2000/svg"
   xmlns:sodipodi="http://sodipodi.sourceforge.net/DTD/sodipodi-0.dtd"
   xmlns:inkscape="http://www.inkscape.org/namespaces/inkscape"
   inkscape:version="1.0 (4035a4fb49, 2020-05-01)"
   sodipodi:docname="transform-symbolic.svg"
   width="64"
   height="64"
   version="1.1"
   id="svg24">
  <sodipodi:namedview
     inkscape:document-rotation="0"
     inkscape:current-layer="svg24"
     inkscape:window-maximized="1"
     inkscape:window-y="40"
     inkscape:window-x="0"
     inkscape:cy="32"
     inkscape:cx="-17.084746"
     inkscape:zoom="3.6875"
     showgrid="false"
     id="namedview951"
     inkscape:window-height="898"
     inkscape:window-width="1920"
     inkscape:pageshadow="2"
     inkscape:pageopacity="0"
     guidetolerance="10"
     gridtolerance="10"
     objecttolerance="10"
     borderopacity="1"
     bordercolor="#666666"
     pagecolor="#ffffff" />
  <metadata
     id="metadata30">
    <rdf:RDF>
      <cc:Work
         rdf:about="">
        <dc:format>image/svg+xml</dc:format>
        <dc:type
           rdf:resource="http://purl.org/dc/dcmitype/StillImage" />
        <dc:title />
      </cc:Work>
    </rdf:RDF>
  </metadata>
  <defs
     id="defs28" />
  <path
     style="fill:#cccccc;stroke-width:1.425"
     d="M 32,3.5 C 16.211,3.5 3.5,16.211 3.5,32 3.5,47.788999 16.211,60.5 32,60.5 47.788999,60.5 60.5,47.788999 60.5,32 60.5,16.211 47.788999,3.5 32,3.5 Z M 13.475,18.111816 32,28.807666 50.525,18.111816 V 24.875 25.373193 40.101905 l -5.7,3.298094 v -8.452587 l 1.424999,-0.751465 v -6.354053 l -14.230517,8.216015 -0.01948,-0.01111 -0.01948,0.01111 -14.230517,-8.216015 v 6.354053 l 1.424999,0.751465 v 8.452587 L 13.47501,40.101905 V 25.373193 24.875 Z M 22.025,36.275 32,42.033447 41.975,36.275 v 6.554442 L 37.677734,45.31206 36.592284,45.938281 32,48.590674 26.325049,45.31206 22.025,42.829442 Z"
     id="rect4" />
</svg>

<svg xmlns="http://www.w3.org/2000/svg" width="64" height="64"><path d="M32 3.5A28.44 28.44 0 0 0 3.5 32 28.44 28.44 0 0 0 32 60.5 28.44 28.44 0 0 0 60.5 32 28.44 28.44 0 0 0 32 3.5M13.475 18.112 32 28.808l18.525-10.696v21.99l-5.7 3.298v-8.453l1.425-.751v-6.354l-14.23 8.216-.02-.011-.02.01-14.23-8.215v6.354l1.425.751V43.4l-5.7-3.298V24.875Zm8.55 18.163L32 42.033l9.975-5.758v6.554l-4.297 2.483-1.086.626L32 48.591l-5.675-3.279-4.3-2.483Z" style="fill:#ccc;stroke-width:1.425"/></svg>
